icons/rotate-lock-fill.svg

<svg xmlns="http://www.w3.org/2000/svg" width="24" height="24" fill="none"><g clip-path="url(#a)"><g><path fill="#121212" d="M12 2C17.523 2 22 6.477 22 12C22 14.136 21.33 16.116 20.189 17.741L17 12H20C19.9998 10.1562 19.3628 8.36906 18.1967 6.94089C17.0305 5.51272 15.4069 4.53119 13.6003 4.16236C11.7938 3.79352 9.91533 4.06002 8.28268 4.91677C6.65002 5.77351 5.36342 7.16791 4.64052 8.86408C3.91762 10.5603 3.80281 12.4541 4.31549 14.2251C4.82818 15.9962 5.93689 17.5358 7.45408 18.5836C8.97127 19.6313 10.8038 20.1228 12.6416 19.9749C14.4795 19.827 16.2099 19.0488 17.54 17.772L18.538 19.567C16.7232 21.1396 14.4014 22.0036 12 22C6.477 22 2 17.523 2 12C2 6.477 6.477 2 12 2ZM12 7C12.7956 7 13.5587 7.31607 14.1213 7.87868C14.6839 8.44129 15 9.20435 15 10V11H16V16H8V11H9V10C9 9.20435 9.31607 8.44129 9.87868 7.87868C10.4413 7.31607 11.2044 7 12 7ZM12 9C11.7551 9.00003 11.5187 9.08996 11.3356 9.25272C11.1526 9.41547 11.0357 9.63975 11.007 9.883L11 10V11H13V10C13 9.75507 12.91 9.51866 12.7473 9.33563C12.5845 9.15259 12.3603 9.03566 12.117 9.007L12 9Z"/></g></g><defs><clipPath id="a"><rect width="24" height="24" fill="white"/></clipPath></defs></svg>

<svg width="24" height="24" fill="none" xmlns="http://www.w3.org/2000/svg"><g clip-path="url(#a)"><path d="M12 2c5.523 0 10 4.477 10 10 0 2.136-.67 4.116-1.811 5.741L17 12h3a8 8 0 1 0-2.46 5.772l.998 1.795A9.96 9.96 0 0 1 12 22C6.477 22 2 17.523 2 12S6.477 2 12 2Zm0 5a3 3 0 0 1 3 3v1h1v5H8v-5h1v-1a3 3 0 0 1 3-3Zm0 2a1 1 0 0 0-.993.883L11 10v1h2v-1a1 1 0 0 0-.883-.993L12 9Z" /></g><defs><clipPath id="a"><path fill="#fff" d="M0 0h24v24H0z"/></clipPath></defs></svg>
